packages/sources/icons/src/vitamix/close-circle-fill.svg

<svg width="16" height="16" viewBox="0 0 16 16" xmlns="http://www.w3.org/2000/svg"><path fill-rule="evenodd" clip-rule="evenodd" d="M1.33325 7.99998C1.33325 11.682 4.31792 14.6666 7.99992 14.6666C11.6819 14.6666 14.6666 11.682 14.6666 7.99998C14.6666 4.31798 11.6819 1.33331 7.99992 1.33331C4.31792 1.33331 1.33325 4.31798 1.33325 7.99998ZM6.11459 5.17129L7.99992 7.05729L9.88526 5.17129L10.8286 6.11462L8.94259 7.99995L10.8286 9.88529L9.88526 10.8286L7.99992 8.94262L6.11459 10.8286L5.17126 9.88529L7.05726 7.99995L5.17126 6.11462L6.11459 5.17129Z"/></svg>

<svg width="16" height="16" xmlns="http://www.w3.org/2000/svg"><path fill-rule="evenodd" clip-rule="evenodd" d="M1.333 8a6.666 6.666 0 1 0 13.333 0A6.666 6.666 0 0 0 1.333 8Zm4.782-2.829L8 7.057l1.885-1.886.944.944L8.943 8l1.886 1.885-.944.944L8 8.943l-1.885 1.886-.944-.944L7.057 8 5.171 6.115l.944-.944Z"/></svg>
